dist/assets/gigagata-logo-title.svg

<svg width="119" height="20" viewBox="0 0 119 20" fill="none" xmlns="http://www.w3.org/2000/svg">
<path d="M10.08 19.836C8.752 19.836 7.52 19.628 6.384 19.212C5.248 18.78 4.264 18.172 3.432 17.388C2.616 16.604 1.976 15.684 1.512 14.628C1.048 13.556 0.816 12.38 0.816 11.1C0.816 9.82 1.048 8.652 1.512 7.596C1.976 6.524 2.624 5.596 3.456 4.812C4.288 4.028 5.272 3.428 6.408 3.012C7.56 2.58 8.816 2.364 10.176 2.364C11.76 2.364 13.176 2.628 14.424 3.156C15.672 3.684 16.704 4.444 17.52 5.436L14.496 8.172C13.92 7.548 13.296 7.084 12.624 6.78C11.968 6.46 11.232 6.3 10.416 6.3C9.696 6.3 9.04 6.412 8.448 6.636C7.856 6.86 7.352 7.188 6.936 7.62C6.52 8.036 6.192 8.54 5.952 9.132C5.728 9.708 5.616 10.364 5.616 11.1C5.616 11.804 5.728 12.452 5.952 13.044C6.192 13.636 6.52 14.148 6.936 14.58C7.352 14.996 7.848 15.324 8.424 15.564C9.016 15.788 9.664 15.9 10.368 15.9C11.072 15.9 11.76 15.788 12.432 15.564C13.104 15.324 13.784 14.924 14.472 14.364L17.136 17.7C16.176 18.388 15.064 18.916 13.8 19.284C12.536 19.652 11.296 19.836 10.08 19.836ZM12.936 17.076V10.74H17.136V17.7L12.936 17.076ZM19.9328 19.5V6.492H24.4928V19.5H19.9328ZM22.2128 5.052C21.3808 5.052 20.7088 4.82 20.1968 4.356C19.6848 3.892 19.4288 3.316 19.4288 2.628C19.4288 1.94 19.6848 1.364 20.1968 0.899999C20.7088 0.435999 21.3808 0.204 22.2128 0.204C23.0448 0.204 23.7168 0.427999 24.2288 0.875999C24.7408 1.308 24.9968 1.868 24.9968 2.556C24.9968 3.276 24.7408 3.876 24.2288 4.356C23.7328 4.82 23.0608 5.052 22.2128 5.052ZM36.0722 19.836C34.7442 19.836 33.5122 19.628 32.3762 19.212C31.2402 18.78 30.2562 18.172 29.4242 17.388C28.6082 16.604 27.9682 15.684 27.5042 14.628C27.0402 13.556 26.8082 12.38 26.8082 11.1C26.8082 9.82 27.0402 8.652 27.5042 7.596C27.9682 6.524 28.6162 5.596 29.4482 4.812C30.2802 4.028 31.2642 3.428 32.4002 3.012C33.5522 2.58 34.8082 2.364 36.1682 2.364C37.7522 2.364 39.1682 2.628 40.4162 3.156C41.6642 3.684 42.6962 4.444 43.5122 5.436L40.4882 8.172C39.9122 7.548 39.2882 7.084 38.6162 6.78C37.9602 6.46 37.2242 6.3 36.4082 6.3C35.6882 6.3 35.0322 6.412 34.4402 6.636C33.8482 6.86 33.3442 7.188 32.9282 7.62C32.5122 8.036 32.1842 8.54 31.9442 9.132C31.7202 9.708 31.6082 10.364 31.6082 11.1C31.6082 11.804 31.7202 12.452 31.9442 13.044C32.1842 13.636 32.5122 14.148 32.9282 14.58C33.3442 14.996 33.8402 15.324 34.4162 15.564C35.0082 15.788 35.6562 15.9 36.3602 15.9C37.0642 15.9 37.7522 15.788 38.4242 15.564C39.0962 15.324 39.7762 14.924 40.4642 14.364L43.1282 17.7C42.1682 18.388 41.0562 18.916 39.7922 19.284C38.5282 19.652 37.2882 19.836 36.0722 19.836ZM38.9282 17.076V10.74H43.1282V17.7L38.9282 17.076ZM53.8689 19.5V17.076L53.5569 16.476V12.012C53.5569 11.292 53.3329 10.74 52.8849 10.356C52.4529 9.956 51.7569 9.756 50.7969 9.756C50.1729 9.756 49.5409 9.86 48.9009 10.068C48.2609 10.26 47.7169 10.532 47.2689 10.884L45.7329 7.788C46.4689 7.308 47.3489 6.94 48.3729 6.684C49.4129 6.412 50.4449 6.276 51.4689 6.276C53.5809 6.276 55.2129 6.764 56.3649 7.74C57.5329 8.7 58.1169 10.212 58.1169 12.276V19.5H53.8689ZM50.0289 19.716C48.9889 19.716 48.1089 19.54 47.3889 19.188C46.6689 18.836 46.1169 18.356 45.7329 17.748C45.3649 17.14 45.1809 16.46 45.1809 15.708C45.1809 14.908 45.3809 14.22 45.7809 13.644C46.1969 13.052 46.8289 12.604 47.6769 12.3C48.5249 11.98 49.6209 11.82 50.9649 11.82H54.0369V14.196H51.5889C50.8529 14.196 50.3329 14.316 50.0289 14.556C49.7409 14.796 49.5969 15.116 49.5969 15.516C49.5969 15.916 49.7489 16.236 50.0529 16.476C50.3569 16.716 50.7729 16.836 51.3009 16.836C51.7969 16.836 52.2449 16.716 52.6449 16.476C53.0609 16.22 53.3649 15.836 53.5569 15.324L54.1809 17.004C53.9409 17.9 53.4689 18.58 52.7649 19.044C52.0769 19.492 51.1649 19.716 50.0289 19.716ZM61.2113 19.5V2.7H69.1553C71.0113 2.7 72.6433 3.044 74.0513 3.732C75.4593 4.42 76.5553 5.388 77.3393 6.636C78.1393 7.884 78.5393 9.372 78.5393 11.1C78.5393 12.812 78.1393 14.3 77.3393 15.564C76.5553 16.812 75.4593 17.78 74.0513 18.468C72.6433 19.156 71.0113 19.5 69.1553 19.5H61.2113ZM65.9633 15.708H68.9633C69.9233 15.708 70.7553 15.532 71.4593 15.18C72.1793 14.812 72.7393 14.284 73.1393 13.596C73.5393 12.892 73.7393 12.06 73.7393 11.1C73.7393 10.124 73.5393 9.292 73.1393 8.604C72.7393 7.916 72.1793 7.396 71.4593 7.044C70.7553 6.676 69.9233 6.492 68.9633 6.492H65.9633V15.708ZM88.7674 19.5V17.076L88.4554 16.476V12.012C88.4554 11.292 88.2314 10.74 87.7834 10.356C87.3514 9.956 86.6554 9.756 85.6954 9.756C85.0714 9.756 84.4394 9.86 83.7994 10.068C83.1594 10.26 82.6154 10.532 82.1674 10.884L80.6314 7.788C81.3674 7.308 82.2474 6.94 83.2714 6.684C84.3114 6.412 85.3434 6.276 86.3674 6.276C88.4794 6.276 90.1114 6.764 91.2634 7.74C92.4314 8.7 93.0154 10.212 93.0154 12.276V19.5H88.7674ZM84.9274 19.716C83.8874 19.716 83.0074 19.54 82.2874 19.188C81.5674 18.836 81.0154 18.356 80.6314 17.748C80.2634 17.14 80.0794 16.46 80.0794 15.708C80.0794 14.908 80.2794 14.22 80.6794 13.644C81.0954 13.052 81.7274 12.604 82.5754 12.3C83.4234 11.98 84.5194 11.82 85.8634 11.82H88.9354V14.196H86.4874C85.7514 14.196 85.2314 14.316 84.9274 14.556C84.6394 14.796 84.4954 15.116 84.4954 15.516C84.4954 15.916 84.6474 16.236 84.9514 16.476C85.2554 16.716 85.6714 16.836 86.1994 16.836C86.6954 16.836 87.1434 16.716 87.5434 16.476C87.9594 16.22 88.2634 15.836 88.4554 15.324L89.0794 17.004C88.8394 17.9 88.3674 18.58 87.6634 19.044C86.9754 19.492 86.0634 19.716 84.9274 19.716ZM101.702 19.716C100.038 19.716 98.7417 19.308 97.8137 18.492C96.8857 17.66 96.4217 16.412 96.4217 14.748V3.588H100.982V14.7C100.982 15.164 101.11 15.532 101.366 15.804C101.622 16.06 101.95 16.188 102.35 16.188C102.894 16.188 103.358 16.052 103.742 15.78L104.87 18.972C104.486 19.228 104.014 19.412 103.454 19.524C102.894 19.652 102.31 19.716 101.702 19.716ZM94.5257 10.38V6.972H103.958V10.38H94.5257ZM114.572 19.5V17.076L114.26 16.476V12.012C114.26 11.292 114.036 10.74 113.588 10.356C113.156 9.956 112.46 9.756 111.5 9.756C110.876 9.756 110.244 9.86 109.604 10.068C108.964 10.26 108.42 10.532 107.972 10.884L106.436 7.788C107.172 7.308 108.052 6.94 109.076 6.684C110.116 6.412 111.148 6.276 112.172 6.276C114.284 6.276 115.916 6.764 117.068 7.74C118.236 8.7 118.82 10.212 118.82 12.276V19.5H114.572ZM110.732 19.716C109.692 19.716 108.812 19.54 108.092 19.188C107.372 18.836 106.82 18.356 106.436 17.748C106.068 17.14 105.884 16.46 105.884 15.708C105.884 14.908 106.084 14.22 106.484 13.644C106.9 13.052 107.532 12.604 108.38 12.3C109.228 11.98 110.324 11.82 111.668 11.82H114.74V14.196H112.292C111.556 14.196 111.036 14.316 110.732 14.556C110.444 14.796 110.3 15.116 110.3 15.516C110.3 15.916 110.452 16.236 110.756 16.476C111.06 16.716 111.476 16.836 112.004 16.836C112.5 16.836 112.948 16.716 113.348 16.476C113.764 16.22 114.068 15.836 114.26 15.324L114.884 17.004C114.644 17.9 114.172 18.58 113.468 19.044C112.78 19.492 111.868 19.716 110.732 19.716Z" fill="url(#paint0_linear_7_93)"/>
<defs>
<linearGradient id="paint0_linear_7_93" x1="0" y1="11" x2="121" y2="11" gradientUnits="userSpaceOnUse">
<stop stop-color="#67B7DC"/>
<stop offset="1" stop-color="#6771DC"/>
</linearGradient>
</defs>
</svg>

<svg xmlns="http://www.w3.org/2000/svg" width="119" height="20" fill="none"><path fill="url(#a)" d="M10.08 19.84q-2 0-3.7-.63a9 9 0 0 1-2.95-1.82A8.6 8.6 0 0 1 .82 11.1a8.6 8.6 0 0 1 2.64-6.29 9 9 0 0 1 2.95-1.8q1.72-.65 3.77-.65 2.37 0 4.24.8a8 8 0 0 1 3.1 2.28L14.5 8.17a6 6 0 0 0-1.88-1.39 5.52 5.52 0 0 0-4.18-.14q-.88.33-1.5.98a5 5 0 0 0-.99 1.51 5 5 0 0 0-.33 1.97q0 1.05.33 1.94.36.89.99 1.54a4.6 4.6 0 0 0 3.43 1.32q1.05 0 2.06-.34a7 7 0 0 0 2.04-1.2l2.67 3.34a11 11 0 0 1-3.34 1.58q-1.89.56-3.72.56m2.86-2.76v-6.34h4.2v6.96zm7 2.42v-13h4.55v13zM22.2 5.05q-1.24 0-2.01-.7a2.2 2.2 0 0 1-.77-1.72q0-1.04.77-1.73.76-.7 2.01-.7t2.02.68q.77.64.77 1.68 0 1.08-.77 1.8-.75.7-2.02.7m13.86 14.79q-2 0-3.7-.63a9 9 0 0 1-2.95-1.82 8.6 8.6 0 0 1-2.61-6.29 8.6 8.6 0 0 1 2.64-6.29 9 9 0 0 1 2.95-1.8q1.72-.65 3.77-.65 2.37 0 4.25.8a8 8 0 0 1 3.1 2.28l-3.03 2.73a6 6 0 0 0-1.87-1.39 5.52 5.52 0 0 0-4.18-.14q-.9.33-1.51.98a5 5 0 0 0-.99 1.51 5 5 0 0 0-.33 1.97q0 1.05.33 1.94.36.89.99 1.54a4.6 4.6 0 0 0 3.43 1.32q1.06 0 2.06-.34a7 7 0 0 0 2.04-1.2l2.67 3.34a11 11 0 0 1-3.34 1.58q-1.89.56-3.72.56m2.86-2.76v-6.34h4.2v6.96zm14.94 2.42v-2.42l-.31-.6V12q0-1.08-.68-1.65-.64-.6-2.08-.6-.94 0-1.9.3t-1.63.82l-1.54-3.1a9 9 0 0 1 2.64-1.1 12 12 0 0 1 3.1-.4q3.16 0 4.9 1.46 1.74 1.44 1.75 4.54v7.22zm-3.84.22a6 6 0 0 1-2.64-.53 4 4 0 0 1-1.66-1.44 4 4 0 0 1-.55-2.04q0-1.2.6-2.07a4 4 0 0 1 1.9-1.34 10 10 0 0 1 3.28-.48h3.08v2.38h-2.45q-1.11 0-1.56.36-.43.36-.43.96t.45.96 1.25.36q.74 0 1.34-.36.63-.39.92-1.16l.62 1.68a3.4 3.4 0 0 1-1.42 2.04q-1.03.68-2.73.68m11.18-.22V2.7h7.95q2.77 0 4.9 1.03 2.1 1.04 3.28 2.9a8 8 0 0 1 1.2 4.47q0 2.57-1.2 4.46a8 8 0 0 1-3.29 2.9q-2.1 1.05-4.9 1.04zm4.75-3.8h3q1.44 0 2.5-.52 1.08-.56 1.68-1.58.6-1.05.6-2.5 0-1.46-.6-2.5-.6-1.02-1.68-1.56a5.3 5.3 0 0 0-2.5-.55h-3zm22.8 3.8v-2.42l-.3-.6V12q0-1.08-.68-1.65-.64-.6-2.08-.6-.94 0-1.9.3t-1.63.82l-1.54-3.1a9 9 0 0 1 2.64-1.1 12 12 0 0 1 3.1-.4q3.16 0 4.9 1.46 1.75 1.44 1.75 4.54v7.22zm-3.83.22a6 6 0 0 1-2.64-.53 4 4 0 0 1-1.66-1.44 4 4 0 0 1-.55-2.04q0-1.2.6-2.07a4 4 0 0 1 1.9-1.34 10 10 0 0 1 3.28-.48h3.08v2.38h-2.45q-1.11 0-1.56.36t-.43.96q0 .6.45.96t1.25.36q.75 0 1.34-.36.63-.39.92-1.16l.62 1.68a3.4 3.4 0 0 1-1.42 2.04q-1.03.68-2.73.68m16.77 0q-2.5 0-3.89-1.23-1.38-1.25-1.39-3.74V3.59h4.56V14.7q0 .7.39 1.1.38.39.98.39.8 0 1.4-.41l1.12 3.2q-.57.38-1.42.54-.84.2-1.75.2m-7.17-9.34v-3.4h9.43v3.4zm20.04 9.12v-2.42l-.31-.6V12q0-1.08-.67-1.65-.65-.6-2.09-.6-.94 0-1.9.3t-1.63.82l-1.53-3.1a9 9 0 0 1 2.64-1.1 12 12 0 0 1 3.1-.4q3.16 0 4.89 1.46 1.75 1.44 1.75 4.54v7.22zm-3.84.22a6 6 0 0 1-2.64-.53 4 4 0 0 1-1.65-1.44 4 4 0 0 1-.56-2.04q0-1.2.6-2.07a4 4 0 0 1 1.9-1.34 10 10 0 0 1 3.29-.48h3.07v2.38h-2.45q-1.1 0-1.56.36-.43.36-.43.96t.46.96 1.24.36q.75 0 1.35-.36.62-.39.91-1.16l.62 1.68a3.4 3.4 0 0 1-1.41 2.04q-1.03.68-2.74.68"/><defs><linearGradient id="a" x1="0" x2="121" y1="11" y2="11" gradientUnits="userSpaceOnUse"><stop stop-color="#67B7DC"/><stop offset="1" stop-color="#6771DC"/></linearGradient></defs></svg>
